X:254
T:Headwood Crossing
C:Liam O'Connors
R:jig
M:6/8
L:1/8
K:Cmaj
cGE G3 | AGE GAB | cGE G3 | A2d dcB |
cGE G3 | AGE GAB | cde ged | eae ged ::
cde g3 | ega ged | cde ged | cAG A2B |
cde g3 | ega gab | a3 ged | eae ged :|
